X: 35077
T: Rolling In The Ryegrass
R: reel
M: 4/4
K: Gmajor
||d2de dBGB|c2ec gcec|dedB GBdB|cedc A2G2|
dedB GBdB|c2ec gcec|d2de dBGB|cedc A2GE||
|:DEGA B2BG|c2cA BAGE|DEGA BGBd|cBGB A2G2:|

